src/next/cmd/lc_bezieredge.svg

<svg height="24" viewBox="0 0 6.3499999 6.3500002" width="24" xmlns="http://www.w3.org/2000/svg" xmlns:xlink="http://www.w3.org/1999/xlink"><linearGradient id="a" gradientUnits="userSpaceOnUse" x1="31.750008" x2="34.499989" xlink:href="#d" y1="48.000015" y2="72.750015"/><radialGradient id="b" cx="72.631729" cy="22.787588" gradientTransform="matrix(5.297908 0 0 5.2979189 -354.76495 -52.461151)" gradientUnits="userSpaceOnUse" r="1.265237" xlink:href="#d"/><linearGradient id="c" gradientUnits="userSpaceOnUse" x1="27.579626" x2="30.679226" y1="57.197716" y2="68.765579"><stop offset="0" stop-color="#fff"/><stop offset="1" stop-color="#fff" stop-opacity="0"/></linearGradient><linearGradient id="d"><stop offset="0" stop-color="#fd0000"/><stop offset="1" stop-color="#8f0000"/></linearGradient><g transform="matrix(.171875 0 0 .171875 .52979 .527949)"><path d="m5.2913921 4.8684656 9.4697349 21.3179274-1.446537.526496-9.4697344-21.3179272z" fill="#4d4d4d" fill-opacity=".992157" opacity=".99"/><g transform="matrix(.38484967 0 0 .38484967 3.075116 3.0858)"><rect fill="url(#a)" height="12" rx="1.546875" width="12" x="24" y="60"/><rect fill="url(#b)" height="8.937499" rx=".837891" width="8.937503" x="25.562511" y="61.5625"/><path d="m26.428317 61.562516c-.464192 0-.837891.3737-.837891.837891v4.224364c.679121.06455 1.378207.104736 2.094726.104736 2.578772 0 4.95135-.434878 6.842772-1.169555v-3.159545c0-.464191-.373698-.837891-.837891-.837891z" fill="url(#c)"/></g><path d="m26.209437 14.741295-20.8251875-9.3463332.5265058-1.4465628 20.8251867 9.346333z" fill="#4d4d4d" fill-opacity=".992157" opacity=".99"/><path d="m6.1539465 3.0858709h20.0118405v1.53937h-20.0118405z" fill="#c80000" opacity=".99"/><g transform="matrix(.38484967 0 0 .38484967 16.9314 -10.775)"><rect fill="url(#a)" height="12" rx="1.546875" width="12" x="24" y="60"/><rect fill="url(#b)" height="8.937499" rx=".837891" width="8.937503" x="25.562511" y="61.5625"/><path d="m26.428317 61.562516c-.464192 0-.837891.3737-.837891.837891v4.224364c.679121.06455 1.378207.104736 2.094726.104736 2.578772 0 4.95135-.434878 6.842772-1.169555v-3.159545c0-.464191-.373698-.837891-.837891-.837891z" fill="url(#c)"/></g><g fill="#c80000" transform="matrix(0 1 1 0 -266.21613 .00717)"><path d="m6.157489 269.29129h20.011841v1.53937h-20.011841z" opacity=".99"/><path d="m26.169329 267.75193v4.61811h4.618117l.000001-4.61813zm1.539373 1.53937h1.539372v1.53937h-1.539372z" opacity=".99"/></g><g transform="matrix(.38484968 0 0 .38484968 -7.6967 -21.548508)"><rect fill="url(#a)" height="12" rx="1.546875" width="12" x="24" y="60"/><rect fill="url(#b)" height="8.937499" rx=".837891" width="8.937503" x="25.562511" y="61.5625"/><path d="m26.428317 61.562516c-.464192 0-.837891.3737-.837891.837891v4.224364c.679121.06455 1.378207.104736 2.094726.104736 2.578772 0 4.95135-.434878 6.842772-1.169555v-3.159545c0-.464191-.373698-.837891-.837891-.837891z" fill="url(#c)"/></g><path d="m26.165786 1.5465109v4.61811h4.618117l.000001-4.61813zm1.539373 1.53937h1.539372v1.53937h-1.539372z" fill="#c80000" opacity=".99"/></g></svg>

<?xml version="1.0" encoding="UTF-8" standalone="no"?>
<svg
   xmlns:dc="http://purl.org/dc/elements/1.1/"
   xmlns:cc="http://creativecommons.org/ns#"
   xmlns:rdf="http://www.w3.org/1999/02/22-rdf-syntax-ns#"
   xmlns:svg="http://www.w3.org/2000/svg"
   xmlns="http://www.w3.org/2000/svg"
   xmlns:xlink="http://www.w3.org/1999/xlink"
   xmlns:sodipodi="http://sodipodi.sourceforge.net/DTD/sodipodi-0.dtd"
   xmlns:inkscape="http://www.inkscape.org/namespaces/inkscape"
   height="24"
   viewBox="0 0 6.3499999 6.3500002"
   width="24"
   version="1.1"
   id="svg56"
   sodipodi:docname="lc_bezieredge.svg"
   inkscape:version="0.92.4 (unknown)">
  <metadata
     id="metadata62">
    <rdf:RDF>
      <cc:Work
         rdf:about="">
        <dc:format>image/svg+xml</dc:format>
        <dc:type
           rdf:resource="http://purl.org/dc/dcmitype/StillImage" />
        <dc:title></dc:title>
      </cc:Work>
    </rdf:RDF>
  </metadata>
  <defs
     id="defs60">
    <linearGradient
       inkscape:collect="always"
       xlink:href="#b"
       id="linearGradient882"
       gradientUnits="userSpaceOnUse"
       x1="31.750008"
       y1="48.000015"
       x2="34.499989"
       y2="72.750015" />
    <radialGradient
       inkscape:collect="always"
       xlink:href="#b"
       id="radialGradient884"
       gradientUnits="userSpaceOnUse"
       gradientTransform="matrix(5.297908,0,0,5.2979189,-354.76495,-52.461151)"
       cx="72.631729"
       cy="22.787588"
       r="1.265237" />
    <linearGradient
       inkscape:collect="always"
       xlink:href="#d"
       id="linearGradient886"
       gradientUnits="userSpaceOnUse"
       x1="27.579626"
       y1="57.197716"
       x2="30.679226"
       y2="68.765579" />
    <linearGradient
       inkscape:collect="always"
       xlink:href="#b"
       id="linearGradient888"
       gradientUnits="userSpaceOnUse"
       x1="31.750008"
       y1="48.000015"
       x2="34.499989"
       y2="72.750015" />
    <radialGradient
       inkscape:collect="always"
       xlink:href="#b"
       id="radialGradient890"
       gradientUnits="userSpaceOnUse"
       gradientTransform="matrix(5.297908,0,0,5.2979189,-354.76495,-52.461151)"
       cx="72.631729"
       cy="22.787588"
       r="1.265237" />
    <linearGradient
       inkscape:collect="always"
       xlink:href="#d"
       id="linearGradient892"
       gradientUnits="userSpaceOnUse"
       x1="27.579626"
       y1="57.197716"
       x2="30.679226"
       y2="68.765579" />
    <linearGradient
       inkscape:collect="always"
       xlink:href="#d"
       id="linearGradient894"
       gradientUnits="userSpaceOnUse"
       x1="27.579626"
       y1="57.197716"
       x2="30.679226"
       y2="68.765579" />
  </defs>
  <sodipodi:namedview
     pagecolor="#ffffff"
     bordercolor="#666666"
     borderopacity="1"
     objecttolerance="10"
     gridtolerance="10"
     guidetolerance="10"
     inkscape:pageopacity="0"
     inkscape:pageshadow="2"
     inkscape:window-width="1366"
     inkscape:window-height="714"
     id="namedview58"
     showgrid="true"
     inkscape:zoom="14.461914"
     inkscape:cx="8.1570878"
     inkscape:cy="9.5424876"
     inkscape:window-x="0"
     inkscape:window-y="28"
     inkscape:window-maximized="1"
     inkscape:current-layer="g964">
    <inkscape:grid
       type="xygrid"
       id="grid869" />
  </sodipodi:namedview>
  <linearGradient
     id="a"
     gradientUnits="userSpaceOnUse"
     x1="31.750008"
     x2="34.499989"
     xlink:href="#b"
     y1="48.000015"
     y2="72.750015" />
  <linearGradient
     id="b">
    <stop
       offset="0"
       stop-color="#fd0000"
       id="stop3" />
    <stop
       offset="1"
       stop-color="#8f0000"
       id="stop5" />
  </linearGradient>
  <radialGradient
     id="c"
     cx="72.631729"
     cy="22.787588"
     gradientTransform="matrix(5.297908,0,0,5.2979189,-354.76495,-52.461151)"
     gradientUnits="userSpaceOnUse"
     r="1.265237"
     xlink:href="#b" />
  <linearGradient
     id="d"
     gradientUnits="userSpaceOnUse"
     x1="27.579626"
     x2="30.679226"
     y1="57.197716"
     y2="68.765579">
    <stop
       offset="0"
       stop-color="#fff"
       id="stop9" />
    <stop
       offset="1"
       stop-color="#fff"
       stop-opacity="0"
       id="stop11" />
  </linearGradient>
  <g
     id="g964"
     transform="matrix(0.171875,0,0,0.171875,0.52979046,0.52794928)">
    <path
       d="M 5.2913921,4.8684656 14.761127,26.186393 13.31459,26.712889 3.8448556,5.3949618 Z"
       id="path14"
       inkscape:connector-curvature="0"
       style="opacity:0.98999999;fill:#4d4d4d;fill-opacity:0.99215698"
       sodipodi:nodetypes="ccccc" />
    <g
       transform="matrix(0.38484967,0,0,0.38484967,3.075116,3.0858)"
       id="g22">
      <rect
         height="12"
         rx="1.546875"
         width="12"
         x="24"
         y="60"
         id="rect16"
         style="fill:url(#linearGradient882)" />
      <rect
         height="8.937499"
         rx="0.83789098"
         width="8.9375029"
         x="25.562511"
         y="61.5625"
         id="rect18"
         style="fill:url(#radialGradient884)" />
      <path
         d="m 26.428317,61.562516 c -0.464192,0 -0.837891,0.3737 -0.837891,0.837891 v 4.224364 c 0.679121,0.06455 1.378207,0.104736 2.094726,0.104736 2.578772,0 4.95135,-0.434878 6.842772,-1.169555 v -3.159545 c 0,-0.464191 -0.373698,-0.837891 -0.837891,-0.837891 z"
         id="path20"
         style="fill:url(#linearGradient886)"
         inkscape:connector-curvature="0" />
    </g>
    <path
       d="M 26.209437,14.741295 5.3842495,5.3949618 5.9107553,3.948399 26.735942,13.294732 Z"
       id="path24"
       inkscape:connector-curvature="0"
       style="opacity:0.98999999;fill:#4d4d4d;fill-opacity:0.99215698"
       sodipodi:nodetypes="ccccc" />
    <path
       d="M 6.1539465,3.0858709 H 26.165787 v 1.53937 H 6.1539465 Z"
       id="path26"
       inkscape:connector-curvature="0"
       style="opacity:0.98999999;fill:#c80000" />
    <g
       transform="matrix(0.38484967,0,0,0.38484967,16.9314,-10.775)"
       id="g34">
      <rect
         height="12"
         rx="1.546875"
         width="12"
         x="24"
         y="60"
         id="rect28"
         style="fill:url(#linearGradient888)" />
      <rect
         height="8.937499"
         rx="0.83789098"
         width="8.9375029"
         x="25.562511"
         y="61.5625"
         id="rect30"
         style="fill:url(#radialGradient890)" />
      <path
         d="m 26.428317,61.562516 c -0.464192,0 -0.837891,0.3737 -0.837891,0.837891 v 4.224364 c 0.679121,0.06455 1.378207,0.104736 2.094726,0.104736 2.578772,0 4.95135,-0.434878 6.842772,-1.169555 v -3.159545 c 0,-0.464191 -0.373698,-0.837891 -0.837891,-0.837891 z"
         id="path32"
         style="fill:url(#linearGradient892)"
         inkscape:connector-curvature="0" />
    </g>
    <g
       transform="matrix(0,1,1,0,-266.21613,0.00716981)"
       id="g42"
       style="fill:#c80000">
      <path
         d="M 6.157489,269.29129 H 26.16933 v 1.53937 H 6.157489 Z"
         id="path38"
         inkscape:connector-curvature="0"
         style="opacity:0.98999999" />
      <path
         d="m 26.169329,267.75193 v 4.61811 h 4.618117 l 1e-6,-4.61813 z m 1.539373,1.53937 h 1.539372 v 1.53937 h -1.539372 z"
         id="path40"
         inkscape:connector-curvature="0"
         style="opacity:0.98999999" />
    </g>
    <g
       transform="matrix(0.38484968,0,0,0.38484968,-7.6966999,-21.548508)"
       id="g50">
      <rect
         height="12"
         rx="1.546875"
         width="12"
         x="24"
         y="60"
         id="rect44"
         style="fill:url(#a)" />
      <rect
         height="8.937499"
         rx="0.83789098"
         width="8.9375029"
         x="25.562511"
         y="61.5625"
         id="rect46"
         style="fill:url(#c)" />
      <path
         d="m 26.428317,61.562516 c -0.464192,0 -0.837891,0.3737 -0.837891,0.837891 v 4.224364 c 0.679121,0.06455 1.378207,0.104736 2.094726,0.104736 2.578772,0 4.95135,-0.434878 6.842772,-1.169555 v -3.159545 c 0,-0.464191 -0.373698,-0.837891 -0.837891,-0.837891 z"
         id="path48"
         style="fill:url(#linearGradient894)"
         inkscape:connector-curvature="0" />
    </g>
    <path
       d="m 26.165786,1.5465109 v 4.61811 h 4.618117 l 1e-6,-4.61813 z m 1.539373,1.53937 h 1.539372 v 1.53937 h -1.539372 z"
       id="path52"
       inkscape:connector-curvature="0"
       style="opacity:0.98999999;fill:#c80000" />
  </g>
</svg>
